svgs/sharp-light/utensils.svg

<svg xmlns="http://www.w3.org/2000/svg" viewBox="0 0 448 512"><!--! Font Awesome Pro 6.6.0 by @fontawesome - https://fontawesome.com License - https://fontawesome.com/license (Commercial License) Copyright 2024 Fonticons, Inc. --><path d="M197.6 0L165.1 0l26.2 157.4c.4 2.6 .7 5.2 .7 7.9l0 10.7c0 26.5-21.5 48-48 48l-64 0c-26.5 0-48-21.5-48-48l0-10.7c0-2.6 .2-5.3 .7-7.9L58.9 0 26.4 0 1.1 152.1C.4 156.5 0 160.9 0 165.3L0 176c0 44.2 35.8 80 80 80l16 0 0 240 0 16 32 0 0-16 0-240 16 0c44.2 0 80-35.8 80-80l0-10.7c0-4.4-.4-8.8-1.1-13.2L197.6 0zM151.2 0l-32 0 .8 16.8 8.5 170 .3 5.2 32 0-.3-6.8L152 15.2 151.2 0zM104.8 0l-32 0L72 15.2l-8.5 170-.3 6.8 32 0 .3-5.2 8.5-170L104.8 0zM320 176c0-62.5 23.8-97.7 47-117.8c12-10.4 24.4-17.2 34.5-21.3c7.6-3.1 12.6-4.2 14.3-4.6l.2-.1L416 320l-96 0 0-144zM448 320l0-288 0-32L416 0C400 0 288 32 288 176l0 144 0 32 32 0 96 0 0 144 0 16 32 0 0-16 0-144 0-16 0-16z"/></svg>

<svg xmlns="http://www.w3.org/2000/svg" viewBox="0 0 448 512"><!--! Font Awesome Pro 6.4.2 by @fontawesome - https://fontawesome.com License - https://fontawesome.com/license (Commercial License) Copyright 2023 Fonticons, Inc. --><path d="M197.6 0H165.1l26.2 157.4c.4 2.6 .7 5.2 .7 7.9V176c0 26.5-21.5 48-48 48H80c-26.5 0-48-21.5-48-48V165.3c0-2.6 .2-5.3 .7-7.9L58.9 0H26.4L1.1 152.1C.4 156.5 0 160.9 0 165.3V176c0 44.2 35.8 80 80 80H96V496v16h32V496 256h16c44.2 0 80-35.8 80-80V165.3c0-4.4-.4-8.8-1.1-13.2L197.6 0zM151.2 0h-32l.8 16.8 8.5 170 .3 5.2h32l-.3-6.8L152 15.2 151.2 0zM104.8 0h-32L72 15.2l-8.5 170-.3 6.8h32l.3-5.2 8.5-170L104.8 0zM320 176c0-62.5 23.8-97.7 47-117.8c12-10.4 24.4-17.2 34.5-21.3c7.6-3.1 12.6-4.2 14.3-4.6l.2-.1V320H320V176zM448 320V32 0H416C400 0 288 32 288 176V320v32h32 96V496v16h32V496 352 336 320z"/></svg>
